X: 1
T:Skip to My Lou
M:4/4
L:1/4
K:Cmaj
V:RH1 clef=treble
%%MIDI channel 4
%%MIDI program 1 4
%%MIDI gchordoff
%
V: LH1 clef=bass
%%MIDI channel 3
%%MIDI program 1 3
%%MIDI gchordoff
[V:RH1]|: EEz2 | EEG2 | DD z2   | DDF2 | EEz2 | EEG2 | DE/2F/2ED | z4   |
[V:LH1]|: z2CC | z4   | z2 B,B, | z4   | z2CC | z4   | z4        | C2C2 |
[V:RH1] E2z2 | EEG2 | D2z2  | DDF2 | E2z2 | EEG2 | DE/2F/2ED | z4  :|
[V:LH1] z2C2 | z4   | z2B,2 | z4   | z2C2 | z4   | z4        | C2C2:|
%

